ui/StatusQ/src/assets/img/icons/network/Network=Testnet.svg

<svg fill="none" height="120" viewBox="0 0 120 120" width="120" xmlns="http://www.w3.org/2000/svg"><path d="m0 60c0-33.1371 26.8629-60 60-60s60 26.8629 60 60-26.8629 60-60 60-60-26.8629-60-60z" fill="#eef2f5"/><path clip-rule="evenodd" d="m59.3823 49.0395h1.2653c1.8702 0 3.7724.7532 4.671 2.3933l7.8327 14.2958c1.1685 2.1328.5558 4.7507-.7116 6.8263-1.4261 2.3354-3.661 4.3942-6.3974 4.3942h-16.6921c-.0532 0-.0974-.0394-.1072-.0917-.2805-1.4982-.8314-2.9574-1.6528-4.3025-1.2502-2.0474-1.8394-4.6336-.6741-6.7305l8.0748-14.53c.8543-1.5373 2.6327-2.2549 4.3914-2.2549zm11.4527.7037c-1.1671-2.1302-.5558-4.7448.71-6.8179 2.4946-4.0854 2.4946-9.2229 0-13.3083-2.3189-3.7977-6.4477-6.1142-10.8974-6.1142h-1.2653c-4.4497 0-8.5785 2.3165-10.8974 6.1142-2.4946 4.0854-2.4946 9.2229 0 13.3083 1.3192 2.1604 1.9746 4.8923.745 7.1049l-7.7777 13.9955c-.923 1.6609-2.8593 2.415-4.7594 2.415h-1.2653c-4.4497 0-8.5785 2.3165-10.8974 6.1142-2.4946 4.0854-2.4946 9.2229 0 13.3083 2.3189 3.7977 6.4477 6.1142 10.8974 6.1142h1.2653c4.4497 0 8.5785-2.3165 10.8974-6.1142.5702-.9338 1.0101-1.9226 1.3196-2.9413.0586-.1928.2388-.323.4404-.323h21.5073c.0991 0 .1867.065.2143.1602.3114 1.0761.7673 2.1206 1.3679 3.1041 2.3189 3.7977 6.4477 6.1142 10.8974 6.1142h1.2653c4.4497 0 8.5785-2.3165 10.8974-6.1142 2.4946-4.0854 2.4946-9.2229 0-13.3083-2.3189-3.7977-6.4477-6.1142-10.8974-6.1142h-1.2653c-1.8671 0-3.7658-.7524-4.6629-2.3898zm-15.9613-13.472c0 2.8394 2.3018 5.1412 5.1412 5.1412 1.3636 0 2.6713-.5416 3.6355-1.5058.9641-.9642 1.5058-2.2719 1.5058-3.6354 0-2.8395-2.3018-5.1413-5.1413-5.1413-2.8394 0-5.1412 2.3018-5.1412 5.1413zm-18.8136 48.0791c-2.8394 0-5.1412-2.3018-5.1412-5.1413 0-2.8394 2.3018-5.1412 5.1412-5.1412 2.8395 0 5.1413 2.3018 5.1413 5.1412 0 1.3636-.5417 2.6713-1.5058 3.6354-.9642.9642-2.2719 1.5059-3.6355 1.5059zm47.9096 0c-2.8394 0-5.1412-2.3018-5.1412-5.1413 0-2.8394 2.3018-5.1412 5.1412-5.1412 2.8395 0 5.1413 2.3018 5.1413 5.1412 0 1.3636-.5417 2.6713-1.5058 3.6354-.9642.9642-2.2719 1.5059-3.6355 1.5059z" fill="#939ba1" fill-rule="evenodd"/><path d="m60 119c-32.5848 0-59-26.4152-59-59h-2c0 33.6894 27.3106 61 61 61zm59-59c0 32.5848-26.4152 59-59 59v2c33.6894 0 61-27.3106 61-61zm-59-59c32.5848 0 59 26.4152 59 59h2c0-33.6894-27.3106-61-61-61zm0-2c-33.6894 0-61 27.3106-61 61h2c0-32.5848 26.4152-59 59-59z" fill="#000" fill-opacity=".1"/></svg>

<svg width="120" height="120" viewBox="0 0 120 120" fill="none" xmlns="http://www.w3.org/2000/svg">
<path d="M0 60C0 26.8629 26.8629 0 60 0C93.1371 0 120 26.8629 120 60C120 93.1371 93.1371 120 60 120C26.8629 120 0 93.1371 0 60Z" fill="#EEF2F5"/>
<path fill-rule="evenodd" clip-rule="evenodd" d="M59.3823 49.0395H60.6476C62.5178 49.0395 64.42 49.7927 65.3186 51.4328L73.1513 65.7286C74.3198 67.8614 73.7071 70.4793 72.4397 72.5549C71.0136 74.8903 68.7787 76.9491 66.0423 76.9491H49.3502C49.297 76.9491 49.2528 76.9097 49.243 76.8574C48.9625 75.3592 48.4116 73.9 47.5902 72.5549C46.34 70.5075 45.7508 67.9213 46.9161 65.8244L54.9909 51.2944C55.8452 49.7571 57.6236 49.0395 59.3823 49.0395ZM70.835 49.7432C69.6679 47.613 70.2792 44.9984 71.545 42.9253C74.0396 38.8399 74.0396 33.7024 71.545 29.617C69.2261 25.8193 65.0973 23.5028 60.6476 23.5028H59.3823C54.9326 23.5028 50.8038 25.8193 48.4849 29.617C45.9903 33.7024 45.9903 38.8399 48.4849 42.9253C49.8041 45.0857 50.4595 47.8176 49.2299 50.0302L41.4522 64.0257C40.5292 65.6866 38.5929 66.4407 36.6928 66.4407H35.4275C30.9778 66.4407 26.849 68.7572 24.5301 72.5549C22.0355 76.6403 22.0355 81.7778 24.5301 85.8632C26.849 89.6609 30.9778 91.9774 35.4275 91.9774H36.6928C41.1425 91.9774 45.2713 89.6609 47.5902 85.8632C48.1604 84.9294 48.6003 83.9406 48.9098 82.9219C48.9684 82.7291 49.1486 82.5989 49.3502 82.5989H70.8575C70.9566 82.5989 71.0442 82.6639 71.0718 82.7591C71.3832 83.8352 71.8391 84.8797 72.4397 85.8632C74.7586 89.6609 78.8874 91.9774 83.3371 91.9774H84.6024C89.0521 91.9774 93.1809 89.6609 95.4998 85.8632C97.9944 81.7778 97.9944 76.6403 95.4998 72.5549C93.1809 68.7572 89.0521 66.4407 84.6024 66.4407H83.3371C81.47 66.4407 79.5713 65.6883 78.6742 64.0509L70.835 49.7432ZM54.8737 36.2712C54.8737 39.1106 57.1755 41.4124 60.0149 41.4124C61.3785 41.4124 62.6862 40.8708 63.6504 39.9066C64.6145 38.9424 65.1562 37.6347 65.1562 36.2712C65.1562 33.4317 62.8544 31.1299 60.0149 31.1299C57.1755 31.1299 54.8737 33.4317 54.8737 36.2712ZM36.0601 84.3503C33.2207 84.3503 30.9189 82.0485 30.9189 79.209C30.9189 76.3696 33.2207 74.0678 36.0601 74.0678C38.8996 74.0678 41.2014 76.3696 41.2014 79.209C41.2014 80.5726 40.6597 81.8803 39.6956 82.8444C38.7314 83.8086 37.4237 84.3503 36.0601 84.3503ZM83.9697 84.3503C81.1303 84.3503 78.8285 82.0485 78.8285 79.209C78.8285 76.3696 81.1303 74.0678 83.9697 74.0678C86.8092 74.0678 89.111 76.3696 89.111 79.209C89.111 80.5726 88.5693 81.8803 87.6052 82.8444C86.641 83.8086 85.3333 84.3503 83.9697 84.3503Z" fill="#939BA1"/>
<path d="M60 119C27.4152 119 1 92.5848 1 60H-1C-1 93.6894 26.3106 121 60 121V119ZM119 60C119 92.5848 92.5848 119 60 119V121C93.6894 121 121 93.6894 121 60H119ZM60 1C92.5848 1 119 27.4152 119 60H121C121 26.3106 93.6894 -1 60 -1V1ZM60 -1C26.3106 -1 -1 26.3106 -1 60H1C1 27.4152 27.4152 1 60 1V-1Z" fill="black" fill-opacity="0.1"/>
</svg>
